symbols/web/bungalow/materialsymbolsrounded/bungalow_wght300grad200fill1_40px.svg

<svg xmlns="http://www.w3.org/2000/svg" height="40" width="40"><path d="M20 23.458q.667 0 1.167-.479t.5-1.104q0-.667-.5-1.167t-1.167-.5q-.667 0-1.146.5-.479.5-.479 1.167 0 .625.479 1.104.479.479 1.146.479ZM13.625 34.5q-.708 0-1.167-.458Q12 33.583 12 32.875v-9.333l-1.167 1.791q-.333.459-.854.646-.521.188-1.062-.146-.5-.291-.625-.895-.125-.605.166-1.105L18.625 8q.208-.333.583-.542.375-.208.792-.208.417 0 .771.208.354.209.604.542l10.167 15.833q.291.459.166 1.063-.125.604-.625.896-.458.291-1.021.166-.562-.125-.895-.583l-1.125-1.833v9.333q0 .708-.48 1.167-.479.458-1.145.458h-4.75v-5.958q0-.667-.5-1.167t-1.167-.5q-.667 0-1.146.5-.479.5-.479 1.167V34.5Z"/></svg>

<svg xmlns="http://www.w3.org/2000/svg" height="40" width="40"><path d="M20 23.458Q20.667 23.458 21.167 22.979Q21.667 22.5 21.667 21.875Q21.667 21.208 21.167 20.708Q20.667 20.208 20 20.208Q19.333 20.208 18.854 20.708Q18.375 21.208 18.375 21.875Q18.375 22.5 18.854 22.979Q19.333 23.458 20 23.458ZM13.625 34.5Q12.917 34.5 12.458 34.042Q12 33.583 12 32.875V23.542L10.833 25.333Q10.5 25.792 9.979 25.979Q9.458 26.167 8.917 25.833Q8.417 25.542 8.292 24.938Q8.167 24.333 8.458 23.833L18.625 8Q18.833 7.667 19.208 7.458Q19.583 7.25 20 7.25Q20.417 7.25 20.771 7.458Q21.125 7.667 21.375 8L31.542 23.833Q31.833 24.292 31.708 24.896Q31.583 25.5 31.083 25.792Q30.625 26.083 30.062 25.958Q29.5 25.833 29.167 25.375L28.042 23.542V32.875Q28.042 33.583 27.562 34.042Q27.083 34.5 26.417 34.5H21.667V28.542Q21.667 27.875 21.167 27.375Q20.667 26.875 20 26.875Q19.333 26.875 18.854 27.375Q18.375 27.875 18.375 28.542V34.5Z"/></svg>
